icon-themes/breeze_svg/cmd/lc_connectorcurvearrows.svg

<svg viewBox="0 0 24 24" xmlns="http://www.w3.org/2000/svg"><path d="m7 4-3 3 3 3v-2h9.5c.82843 0 1.5.67157 1.5 1.5s-.67157 1.5-1.5 1.5h-9c-1.9329966 0-3.5 1.567003-3.5 3.5s1.5670034 3.5 3.5 3.5h9.5v2l3-3-3-3v2h-9.5c-.8284272 0-1.5-.671573-1.5-1.5s.6715728-1.5 1.5-1.5h9c1.933 0 3.5-1.567 3.5-3.5 0-1.7652678-1.300997-3.2286594-3-3.46875v-.03125h-.5-9.5z" fill="#4d4d4d"/></svg>

<svg xmlns="http://www.w3.org/2000/svg" viewBox="0 0 24 24">
 <path 
     style="fill:#4d4d4d" 
     d="M 7 4 L 4 7 L 7 10 L 7 8 L 16.5 8 C 17.32843 8 18 8.67157 18 9.5 C 18 10.32843 17.32843 11 16.5 11 L 7.5 11 C 5.5670034 11 4 12.567003 4 14.5 C 4 16.432997 5.5670034 18 7.5 18 L 17 18 L 17 20 L 20 17 L 17 14 L 17 16 L 7.5 16 C 6.6715728 16 6 15.328427 6 14.5 C 6 13.671573 6.6715728 13 7.5 13 L 16.5 13 C 18.433 13 20 11.433 20 9.5 C 20 7.7347322 18.699003 6.2713406 17 6.03125 L 17 6 L 16.5 6 L 7 6 L 7 4 z "
     />
 </svg>
